X:1
T:America the Beautiful
T:In The Mood 
T:by Joe Garland
C:by Samuel A. Ward
Z:arrangement by S. A.
%%score { ( 1 3 ) | ( 2 4 ) }
L:1/8
Q:1/4=120
M:2/2
K:G
V:1 treble nm="Piano" snm="Pno."
V:3 treble 
V:2 bass 
V:4 bass 
V:1
 G,B,DG- G G2 G- | G G2 G FGDB, | D^C=CB, _B, A,2 G,- | z Bdg- gdBG | z BAG E2 AB | AGEE- E z3 | %6
 ABAG E2 AB | AGEE- E D3 ||S B,DGB, DGB,D | GB,DG- G z z2 | B,DGB, DGB,D | GB,DG- G z z2 | %12
 CEGC EGCE | GCEG- G z z2 | B,DGB, DGB,D | GB,DG- G z z2 | DFAD FADF | ADFA- A [CG]2 [B,G]- | %18
 [B,G][B,G][B,G][B,G] [A,G][A,G][A,G][A,G] | [_B,G] [A,G]2 [=B,G]- [B,G]2 z2 | B,DGB, DGB,D | %21
 GB,DG- G z z2 | B,DGB, DGB,D | GB,DG- G z z2 | CEGC EGCE | GCEG- G z z2 | B,DGB, DGB,D | %27
 GB,DG- G2 z2 | DFAD FADF | ADFA- A [A,G]2 [B,G]- | [B,G][B,G][B,G][B,G] [A,G][A,G][A,G][A,G] | %31
 [_B,G] [A,G]2 [=B,G] z [G,G]3!fine! |: [B,G] [B,E]2 [G,G]- [G,G]2 ^C=C- | CCEG [CB] [_CB]3 | %34
 [B,G] [B,E]2 [G,G]- [G,G]2 ^CC- | C^CEG [=CB] [_CB]3 | [B,G] [B,E]2 [G,G]- [G,G]2 ^CC- | %37
 C^CEG [CB] [Ed]2 [CB] | dddd dddd | [Fd]2 [_D_B][CA]- [CA] [=B,G]3 | %40
 [B,G] [B,E]2 [G,G]- [G,G]2 ^C=C- | CCEG [CB] [_CB]3 | [B,G] [B,E]2 [G,G]- [G,G]2 ^C=C- | %43
 CCEG [CB] [_CB]3 | [B,G] [B,E]2 [G,G]- [G,G]2 ^CC | CCEG [CB] [Ed]2 [CB] | dddd dddd |1 %47
 [Fd]2 [_D_B][CA]- [CA] [=DG]2 z :|2 [Fd]2 [_D_B][CA]- [CA] [=DG]2 z || G,A,B,C D G2 D | %50
 _E2 CD- D2 z2 | z [_E_e] [Dd]2 [Cc] [_B,_B]2 [=E=e] | [Dd]2 [_B,_B][G,G]- [G,G] z z2!D.S.! |] %53
V:2
 G,,B,,D,G,- G, G,2 G,- | G, G,2 G, F,G,D,B,, | D,^C,=C,B,, _B,, A,,2 G,,- | G,,8 | [A,,G,]8- | %5
 [A,,G,]4- [A,,G,] [A,,G,]3 | [A,,G,]8 | [D,F,C]4 D,, z z2 || [G,,D,]8- | %9
 [G,,D,]4- [G,,D,] [G,,E,]3 | [G,,D,]8- | [G,,D,]4- [G,,D,] [G,,E,]3 | [C,G,]8- | %13
 [C,G,]4- [C,G,] [C,A,]3 | [G,,D,]8- | [G,,D,]4- [G,,D,] [G,,E,]3 | [D,F,]8- | %17
 [D,F,]4- [D,F,] z z2 | G,,4 C,4 | _E, D,2 G,,- G,,2 D,,2 | [G,,D,]8- | %21
 [G,,D,]4- [G,,D,] [G,,E,]3 | [G,,D,]8- | [G,,D,]4- [G,,D,] [G,,E,]3 | [C,G,]8- | %25
 [C,G,]4- [C,G,] [C,A,]3 | [G,,D,]8- | [G,,D,]4- [G,,D,] [G,,E,]3 | [D,F,]8- | %29
 [D,F,]4- [D,F,] z z2 | G,,4 C,4 | _E, D,2 G,, z G,,,3 |: G,,3 B,,3 _B,,A,,- | A,,4 D,, D,3 | %34
 G,,3 B,,3 _B,,A,,- | A,,4 D,,2 D,2 | G,,4 B,,2 _B,,A,,- | A,,4 D,,2 D,2 | [D,C]4 [D,B,]4 | C4 z4 | %40
 G,,4 B,,2 _B,,A,,- | A,,4 D,,2 D,2 | G,,4 B,,2 _B,,A,,- | A,,4 D,,2 D,2 | G,,4 B,,2 _B,,A,,- | %45
 A,,4 D,,2 D,2 | [D,C]4 [D,B,]4 |1 [D,C]2 _E,D,- D, G,,2 D,, :|2 [D,C]2 _E,D,- D, G,,2 D,, || %49
 G,,A,,B,,C, D, G,2 D, | _E,2 C,D,- D,2 _E,,D,,- | D,,4- D,,3 E, | D,2 _B,,G,,- G,, D,,3 |] %53
V:3
 x8 | x8 | x8 | G,8 | ^C8- | C4- C ^C3 | x8 | x8 || x8 | x8 | x8 | x8 | x8 | x8 | x8 | x8 | x8 | %17
 x8 | x8 | x8 | x8 | x8 | x8 | x8 | x8 | x8 | x8 | x8 | x8 | x8 | x8 | x8 |: x8 | x8 | x8 | x8 | %36
 x8 | x8 | [FA]4 [^E^G]4 | x8 | x8 | x8 | x8 | x8 | x8 | x8 | [FA]4 [^E^G]4 |1 x8 :|2 x8 || x8 | %50
 x8 | x8 | x8 |] %53
V:4
 x8 | x8 | x8 | x8 | x8 | x8 | x8 | x8 || x8 | x8 | x8 | x8 | x8 | x8 | x8 | x8 | x8 | x8 | x8 | %19
 x8 | x8 | x8 | x8 | x8 | x8 | x8 | x8 | x8 | x8 | x8 | x8 | x8 |: x8 | x8 | x8 | x8 | x8 | x8 | %38
 x8 | D,2 _E,D,- D, G,,2 D,, | x8 | x8 | x8 | x8 | x8 | x8 | x8 |1 x8 :|2 x8 || x8 | x8 | x8 | %52
 x8 |] %53

